X:156
T:Star Above the Garter
R:slide
Z:transcribed by Dave Marshall
M:6/8
K:G
|: d2B BAG | A3 ABA | G2E c2B | BAG ABc |
d2B BAG | A3 ABA | G2E c2E | D6 :|
|: d2e f2a | gfe d2B | G2B c2B | BAG A3 |
d2e f2a | gfe d2B | G2B c2E | D6 :|
